

// SDF_Scale.osl by IMAN SHIRANI
// 2025-09-11


shader SDF_Scale(
    point Position_In = P,
    float Scale = 1.0,

    output point Position_Out = P,
    output float Scale_Out = 1.0
)
{
    
    Position_Out = Position_In / Scale;
    Scale_Out = Scale; 
}