
// SDF_Transform.osl by IMAN SHIRANI
// 2025-09-11


shader SDF_Transform(
    point Position_In = P,
    vector Amount = vector(0.0), 

    output point Position_Out = P
)
{
    
    Position_Out = Position_In - Amount;
}