// SDF_Round.osl by IMAN SHIRANI
// 2025-11-25



shader SDF_Round(
   
    float InputSDF = 0.0,
    
    
    float Radius = 0.1 [[ string label = "Round Radius", float min = 0.0 ]],
    
    output float SDF_Out = 0.0
)
{
    
    SDF_Out = InputSDF - Radius;
}